img/svg/advantages-decorate-mob-bottom.svg

<svg width="280" height="207" viewBox="0 0 280 207" fill="none" xmlns="http://www.w3.org/2000/svg">
<g opacity="0.07">
<g clip-path="url(#clip0)">
<path d="M-322.69 498.079L-324.158 493.904L-306.629 487.825L-237.489 511.071L-168.309 487.701L-99.1697 510.947L-29.8556 487.712L39.4175 510.823L108.598 487.453L177.737 510.699L246.918 487.329L264.436 493.376L262.961 497.554L246.913 492.179L177.733 515.279L108.594 492.303L39.2795 515.538L-29.8597 492.293L-99.0401 515.662L-168.313 492.552L-237.493 515.652L-306.633 492.676L-322.69 498.079Z" fill="#B69D6D"/>
<path d="M-342.204 478.426L-343.671 474.251L-306.606 461.688L-237.466 484.934L-168.286 461.564L-99.1467 484.81L-29.8325 461.575L39.4406 484.686L108.621 461.316L177.76 484.562L246.941 461.192L283.984 473.688L282.509 477.866L246.936 466.042L177.756 489.142L108.617 466.166L39.3027 489.401L-29.8366 466.156L-99.017 489.525L-168.29 466.414L-237.47 489.515L-306.61 466.538L-342.204 478.426Z" fill="#B69D6D"/>
<path d="M-361.583 458.908L-363.051 454.733L-306.582 435.551L-237.443 458.797L-168.263 435.427L-99.1235 458.673L-29.8094 435.438L39.4637 458.549L108.644 435.179L177.783 458.425L246.964 435.055L303.399 454.135L301.923 458.313L246.96 439.905L177.645 463.14L108.64 440.029L39.3258 463.264L-29.8134 440.018L-98.9939 463.388L-168.267 440.277L-237.314 463.512L-306.587 440.401L-361.583 458.908Z" fill="#B69D6D"/>
<path d="M-388.448 433.2L-386.973 429.022L-375.74 432.784L-306.559 409.414L-237.42 432.66L-168.24 409.29L-99.1004 432.536L-29.7863 409.301L39.4868 432.412L108.667 409.042L177.807 432.288L246.987 408.918L316.126 432.164L327.366 428.381L328.834 432.556L316.256 436.879L246.983 413.768L177.669 437.003L108.663 413.892L39.3489 437.127L-29.7904 413.881L-98.9708 437.251L-168.244 414.14L-237.291 437.375L-306.564 414.264L-375.878 437.5L-388.448 433.2Z" fill="#B69D6D"/>
<path d="M-419.184 396.851L-417.842 392.538L-375.717 406.647L-306.536 383.277L-237.397 406.523L-168.217 383.153L-99.0773 406.399L-29.7632 383.164L39.5099 406.274L108.69 382.905L177.83 406.15L247.01 382.781L316.149 406.026L358.3 391.842L359.634 396.152L316.279 410.742L247.006 387.631L177.692 410.866L108.686 387.755L39.372 410.99L-29.7673 387.744L-98.9477 411.114L-168.221 388.003L-237.267 411.238L-306.541 388.127L-375.855 411.362L-419.184 396.851Z" fill="#B69D6D"/>
<path d="M-399.636 377.163L-398.428 372.986L-375.694 380.51L-306.513 357.14L-237.374 380.386L-168.194 357.016L-99.0543 380.262L-29.7401 357.027L39.533 380.137L108.713 356.768L177.853 380.013L247.033 356.644L316.172 379.889L338.92 372.324L340.121 376.5L316.302 384.605L247.029 361.494L177.715 384.729L108.709 361.618L39.3951 384.853L-29.7442 361.607L-98.9247 384.977L-168.198 361.866L-237.244 385.101L-306.518 361.99L-375.832 385.225L-399.636 377.163Z" fill="#B69D6D"/>
<path d="M-380.222 357.61L-378.88 353.298L-375.671 354.373L-306.49 331.003L-237.351 354.249L-168.17 330.879L-99.0311 354.125L-29.717 330.889L39.5561 354L108.737 330.631L177.876 353.876L247.056 330.507L316.196 353.752L319.407 352.672L320.741 356.982L316.325 358.468L247.052 335.357L177.738 358.592L108.732 335.481L39.4182 358.716L-29.7211 335.47L-98.9015 358.84L-168.175 335.729L-237.221 358.964L-306.494 335.853L-375.808 359.088L-380.222 357.61Z" fill="#B69D6D"/>
<path d="M-343.671 322.144L-345.138 317.969L-306.467 304.866L-237.328 328.112L-168.014 304.876L-99.008 327.988L-29.6939 304.752L39.5793 327.863L108.626 304.628L177.899 327.739L247.079 304.369L285.728 317.403L284.253 321.581L247.075 309.22L177.761 332.455L108.755 309.344L39.4413 332.579L-29.6979 309.333L-98.8784 332.703L-168.152 309.592L-237.198 332.827L-306.471 309.716L-343.671 322.144Z" fill="#B69D6D"/>
<path d="M-306.582 283.444L-305.24 279.132L-237.305 301.975L-167.991 278.739L-98.9849 301.851L-29.6708 278.615L39.6023 301.726L108.649 278.491L177.922 301.602L245.898 278.638L247.232 282.948L177.784 306.318L108.778 283.207L39.4644 306.442L-29.6749 283.196L-98.8553 306.566L-168.128 283.455L-237.175 306.69L-306.582 283.444Z" fill="#B69D6D"/>
<path d="M-287.168 263.892L-285.826 259.579L-237.282 275.838L-167.967 252.602L-98.9618 275.714L-29.6477 252.478L39.6254 275.589L108.672 252.354L177.945 275.465L226.519 259.12L227.853 263.43L177.807 280.181L108.802 257.07L39.4875 280.305L-29.6518 257.059L-98.8322 280.429L-168.105 257.318L-237.152 280.553L-287.168 263.892Z" fill="#B69D6D"/>
<path d="M-267.62 244.204L-266.278 239.892L-237.258 249.701L-167.944 226.465L-98.9387 249.577L-29.6246 226.341L39.6486 249.452L108.695 226.217L177.968 249.328L207.005 239.467L208.339 243.777L177.83 254.044L108.825 230.933L39.5106 254.168L-29.6286 230.922L-98.8091 254.292L-168.082 231.181L-237.129 254.416L-267.62 244.204Z" fill="#B69D6D"/>
<path d="M-248.206 224.651L-246.864 220.339L-237.235 223.564L-167.921 200.328L-98.9156 223.439L-29.6015 200.204L39.6717 223.315L108.718 200.08L177.991 223.191L187.626 219.949L188.96 224.259L177.853 227.907L108.848 204.796L39.5337 228.031L-29.6055 204.785L-98.786 228.155L-168.059 205.044L-237.106 228.279L-248.206 224.651Z" fill="#B69D6D"/>
<path d="M-218.215 195.793L-219.549 191.483L-167.898 174.191L-98.8925 197.302L-29.5783 174.067L39.6948 197.178L108.741 173.943L160.362 191.142L159.02 195.454L108.871 178.659L39.5569 201.894L-29.5824 178.648L-98.7629 202.018L-168.036 178.907L-218.215 195.793Z" fill="#B69D6D"/>
<path d="M-179.253 156.552L-180.587 152.242L-167.875 148.054L-98.8694 171.165L-29.5552 147.93L39.7179 171.041L108.764 147.806L121.469 151.971L120.128 156.284L108.894 152.522L39.5799 175.757L-29.5593 152.511L-98.7397 175.881L-168.013 152.77L-179.253 156.552Z" fill="#B69D6D"/>
<path d="M-155.152 130.933L-153.81 126.62L-98.8463 145.028L-29.5321 121.793L39.741 144.904L94.7374 126.397L96.0713 130.707L39.603 149.62L-29.5362 126.374L-98.7167 149.744L-155.152 130.933Z" fill="#B69D6D"/>
<path d="M-135.604 111.245L-134.262 106.932L-98.8232 118.891L-29.509 95.6562L39.7641 118.767L75.2241 106.745L76.558 111.055L39.6262 123.483L-29.5131 100.237L-98.6935 123.607L-135.604 111.245Z" fill="#B69D6D"/>
<path d="M-116.189 91.6921L-114.848 87.3796L-98.8 92.7543L-29.4859 69.5191L39.7872 92.63L55.8445 87.2265L57.1784 91.5366L39.6493 97.3456L-29.49 74.0998L-98.6704 97.4696L-116.189 91.6921Z" fill="#B69D6D"/>
<path d="M-92.6258 69.3063L-94.0936 65.1311L-29.4628 43.3821L35.1296 65.0152L33.6545 69.193L-29.4668 47.9628L-92.6258 69.3063Z" fill="#B69D6D"/>
</g>
</g>
<defs>
<clipPath id="clip0">
<rect width="559.014" height="560.011" transform="matrix(0.704586 0.709619 -0.704586 0.709619 -29.4244 0)" fill="white"/>
</clipPath>
</defs>
</svg>

<svg width="280" height="207" viewBox="0 0 280 207" fill="none" xmlns="http://www.w3.org/2000/svg"><g clip-path="url(#clip0)" fill="#B69D6D" opacity=".07"><path d="M-322.69 498.079l-1.468-4.175 17.529-6.079 69.14 23.246 69.18-23.37 69.14 23.246 69.313-23.235 69.274 23.111 69.18-23.37 69.139 23.246 69.181-23.37 17.518 6.047-1.475 4.178-16.048-5.375-69.18 23.1-69.139-22.976-69.314 23.235-69.14-23.245-69.18 23.369-69.273-23.11-69.18 23.1-69.14-22.976-16.057 5.403z"/><path d="M-342.204 478.426l-1.467-4.175 37.065-12.563 69.14 23.246 69.18-23.37 69.14 23.246 69.314-23.235 69.273 23.111 69.18-23.37 69.139 23.246 69.181-23.37 37.043 12.496-1.475 4.178-35.573-11.824-69.18 23.1-69.139-22.976-69.314 23.235-69.14-23.245-69.18 23.369-69.273-23.111-69.18 23.101-69.14-22.977-35.594 11.888z"/><path d="M-361.583 458.908l-1.468-4.175 56.469-19.182 69.139 23.246 69.18-23.37 69.14 23.246 69.314-23.235 69.273 23.111 69.18-23.37 69.139 23.246 69.181-23.37 56.435 19.08-1.476 4.178-54.963-18.408-69.315 23.235-69.005-23.111-69.314 23.235-69.14-23.246-69.18 23.37-69.273-23.111-69.047 23.235-69.273-23.111-54.996 18.507z"/><path d="M-388.448 433.2l1.475-4.178 11.233 3.762 69.181-23.37 69.139 23.246 69.18-23.37 69.14 23.246 69.314-23.235 69.273 23.111 69.18-23.37 69.14 23.246 69.18-23.37 69.139 23.246 11.24-3.783 1.468 4.175-12.578 4.323-69.273-23.111-69.314 23.235-69.006-23.111-69.314 23.235-69.14-23.246-69.18 23.37-69.273-23.111-69.047 23.235-69.273-23.111-69.314 23.236-12.57-4.3z"/><path d="M-419.184 396.851l1.342-4.313 42.125 14.109 69.181-23.37 69.139 23.246 69.18-23.37 69.14 23.246 69.314-23.235 69.273 23.11 69.18-23.369 69.14 23.245 69.18-23.369 69.139 23.245 42.151-14.184 1.334 4.31-43.355 14.59-69.273-23.111-69.314 23.235-69.006-23.111-69.314 23.235-69.14-23.246-69.18 23.37-69.273-23.111-69.046 23.235-69.274-23.111-69.314 23.235-43.329-14.511z"/><path d="M-399.636 377.163l1.208-4.177 22.734 7.524 69.181-23.37 69.139 23.246 69.18-23.37 69.14 23.246 69.314-23.235 69.273 23.11 69.18-23.369 69.14 23.245 69.18-23.369 69.139 23.245 22.748-7.565 1.201 4.176-23.819 8.105-69.273-23.111-69.314 23.235-69.006-23.111-69.314 23.235-69.14-23.246-69.18 23.37-69.273-23.111-69.046 23.235-69.274-23.111-69.314 23.235-23.804-8.062z"/><path d="M-380.222 357.61l1.342-4.312 3.209 1.075 69.181-23.37 69.139 23.246 69.181-23.37 69.139 23.246 69.314-23.236L39.556 354l69.181-23.369 69.139 23.245 69.18-23.369 69.14 23.245 3.211-1.08 1.334 4.31-4.416 1.486-69.273-23.111-69.314 23.235-69.006-23.111-69.314 23.235-69.14-23.246-69.18 23.37-69.273-23.111-69.046 23.235-69.273-23.111-69.314 23.235-4.414-1.478z"/><path d="M-343.671 322.144l-1.467-4.175 38.671-13.103 69.139 23.246 69.314-23.236 69.006 23.112 69.314-23.236 69.273 23.111 69.047-23.235 69.273 23.111 69.18-23.37 38.649 13.034-1.475 4.178-37.178-12.361-69.314 23.235-69.006-23.111-69.314 23.235-69.139-23.246-69.18 23.37-69.274-23.111-69.046 23.235-69.273-23.111-37.2 12.428z"/><path d="M-306.582 283.444l1.342-4.312 67.935 22.843 69.314-23.236 69.006 23.112 69.314-23.236 69.273 23.111 69.047-23.235 69.273 23.111 67.976-22.964 1.334 4.31-69.448 23.37-69.006-23.111-69.314 23.235-69.139-23.246-69.18 23.37-69.273-23.111-69.047 23.235-69.407-23.246z"/><path d="M-287.168 263.892l1.342-4.313 48.544 16.259 69.315-23.236 69.005 23.112 69.314-23.236 69.273 23.111 69.047-23.235 69.273 23.111 48.574-16.345 1.334 4.31-50.046 16.751-69.005-23.111-69.315 23.235-69.139-23.246-69.18 23.37-69.273-23.111-69.047 23.235-50.016-16.661z"/><path d="M-267.62 244.204l1.342-4.312 29.02 9.809 69.314-23.236 69.005 23.112 69.314-23.236 69.274 23.111 69.046-23.235 69.273 23.111 29.037-9.861 1.334 4.31-30.509 10.267-69.005-23.111-69.314 23.235-69.14-23.246-69.18 23.37-69.273-23.111-69.047 23.235-30.491-10.212z"/><path d="M-248.206 224.651l1.342-4.312 9.629 3.225 69.314-23.236 69.005 23.111 69.314-23.235 69.274 23.111 69.046-23.235 69.273 23.111 9.635-3.242 1.334 4.31-11.107 3.648-69.005-23.111-69.314 23.235-69.14-23.246-69.18 23.37-69.273-23.111-69.047 23.235-11.1-3.628z"/><path d="M-218.215 195.793l-1.334-4.31 51.651-17.292 69.005 23.111 69.315-23.235 69.273 23.111 69.046-23.235 51.621 17.199-1.342 4.312-50.149-16.795-69.314 23.235-69.14-23.246-69.18 23.37-69.273-23.111-50.179 16.886z"/><path d="M-179.253 156.552l-1.334-4.31 12.712-4.188 69.006 23.111 69.314-23.235 69.273 23.111 69.046-23.235 12.705 4.165-1.341 4.313-11.234-3.762-69.314 23.235-69.14-23.246-69.18 23.37-69.273-23.111-11.24 3.782z"/><path d="M-155.152 130.933l1.342-4.313 54.964 18.408 69.314-23.235 69.273 23.111 54.996-18.507 1.334 4.31-56.468 18.913-69.14-23.246-69.18 23.37-56.435-18.811z"/><path d="M-135.604 111.245l1.342-4.313 35.439 11.959 69.314-23.235 69.273 23.111 35.46-12.022 1.334 4.31-36.932 12.428-69.14-23.246-69.18 23.37-36.91-12.362z"/><path d="M-116.189 91.692l1.341-4.312 16.048 5.374 69.314-23.235L39.787 92.63l16.057-5.403 1.334 4.31-17.529 5.809L-29.49 74.1l-69.18 23.37-17.519-5.778zm23.563-22.386l-1.468-4.175 64.631-21.749L35.13 65.015l-1.476 4.178-63.12-21.23-63.16 21.343z"/></g><defs><clipPath id="clip0"><path transform="matrix(.70459 .70962 -.70459 .70962 -29.424 0)" fill="#fff" d="M0 0h559.014v560.011H0z"/></clipPath></defs></svg>
